assets/img/calameo/grid-lycee.svg

<svg width="402" height="224" viewBox="0 0 402 224" fill="none" xmlns="http://www.w3.org/2000/svg">
<rect x="8" y="8" width="40" height="40" rx="20" fill="#002E4D"/>
<path d="M19 34V32H37V34H19ZM19 29V27H37V29H19ZM19 24V22H37V24H19Z" fill="white"/>
<rect x="64" y="8" width="40" height="40" rx="20" fill="#002E4D"/>
<path d="M78.4 35L77 33.6L82.6 28L77 22.4L78.4 21L84 26.6L89.6 21L91 22.4L85.4 28L91 33.6L89.6 35L84 29.4L78.4 35Z" fill="white"/>
<rect x="121" y="8" width="40" height="40" rx="20" fill="#002E4D"/>
<path d="M140 35V29H134V27H140V21H142V27H148V29H142V35H140Z" fill="white"/>
<rect x="176" y="8" width="40" height="40" rx="20" fill="#002E4D"/>
<path d="M189 29V27H203V29H189Z" fill="white"/>
<rect x="288" y="8" width="40" height="40" rx="20" fill="#002E4D"/>
<path d="M299 37V32H301V35H304V37H299ZM312 37V35H315V32H317V37H312ZM299 24V19H304V21H301V24H299ZM315 24V21H312V19H317V24H315Z" fill="white"/>
<rect x="344" y="8" width="40" height="40" rx="20" fill="#002E4D"/>
<path d="M355 37V32H357V35H360V37H355ZM368 37V35H371V32H373V37H368ZM355 24V19H360V21H357V24H355ZM371 24V21H368V19H373V24H371Z" fill="white"/>
<path d="M372 22.666C371.634 22.666 371.32 22.5356 371.059 22.2747C370.798 22.0133 370.667 21.6993 370.667 21.3327V14.666C370.667 14.2993 370.798 13.9853 371.059 13.724C371.32 13.4631 371.634 13.3327 372 13.3327H372.667V11.9993C372.667 11.0771 372.992 10.2909 373.642 9.64068C374.292 8.9909 375.078 8.66602 376 8.66602C376.923 8.66602 377.709 8.9909 378.359 9.64068C379.009 10.2909 379.334 11.0771 379.334 11.9993V13.3327H380C380.367 13.3327 380.681 13.4631 380.942 13.724C381.203 13.9853 381.334 14.2993 381.334 14.666V21.3327C381.334 21.6993 381.203 22.0133 380.942 22.2747C380.681 22.5356 380.367 22.666 380 22.666H372ZM374 13.3327H378V11.9993C378 11.4438 377.806 10.9716 377.417 10.5827C377.028 10.1938 376.556 9.99935 376 9.99935C375.445 9.99935 374.973 10.1938 374.584 10.5827C374.195 10.9716 374 11.4438 374 11.9993V13.3327ZM376 19.3327C376.367 19.3327 376.681 19.2022 376.942 18.9413C377.203 18.68 377.334 18.366 377.334 17.9993C377.334 17.6327 377.203 17.3187 376.942 17.0573C376.681 16.7965 376.367 16.666 376 16.666C375.634 16.666 375.32 16.7965 375.059 17.0573C374.798 17.3187 374.667 17.6327 374.667 17.9993C374.667 18.366 374.798 18.68 375.059 18.9413C375.32 19.2022 375.634 19.3327 376 19.3327Z" fill="#21BFEF"/>
<rect x="288" y="64" width="40" height="40" rx="20" fill="#002E4D"/>
<rect opacity="0.16" x="288" y="64" width="40" height="40" rx="20" fill="white"/>
<path d="M299 93V88H301V91H304V93H299ZM312 93V91H315V88H317V93H312ZM299 80V75H304V77H301V80H299ZM315 80V77H312V75H317V80H315Z" fill="white"/>
<rect x="344" y="64" width="40" height="40" rx="20" fill="#002E4D"/>
<rect opacity="0.16" x="344" y="64" width="40" height="40" rx="20" fill="white"/>
<path d="M355 93V88H357V91H360V93H355ZM368 93V91H371V88H373V93H368ZM355 80V75H360V77H357V80H355ZM371 80V77H368V75H373V80H371Z" fill="white"/>
<rect x="288" y="120" width="40" height="40" rx="20" fill="#002E4D"/>
<rect opacity="0.32" x="288" y="120" width="40" height="40" rx="20" fill="white"/>
<path d="M299 149V144H301V147H304V149H299ZM312 149V147H315V144H317V149H312ZM299 136V131H304V133H301V136H299ZM315 136V133H312V131H317V136H315Z" fill="white"/>
<rect x="343" y="120" width="40" height="40" rx="20" fill="#002E4D"/>
<rect opacity="0.32" x="343" y="120" width="40" height="40" rx="20" fill="white"/>
<path d="M354 149V144H356V147H359V149H354ZM367 149V147H370V144H372V149H367ZM354 136V131H359V133H356V136H354ZM370 136V133H367V131H372V136H370Z" fill="white"/>
<rect x="288" y="176" width="40" height="40" rx="20" fill="#0A3B61"/>
<path d="M299 205V200H301V203H304V205H299ZM312 205V203H315V200H317V205H312ZM299 192V187H304V189H301V192H299ZM315 192V189H312V187H317V192H315Z" fill="#386694"/>
<rect x="344" y="176" width="40" height="40" rx="20" fill="#0A3B61"/>
<path d="M355 205V200H357V203H360V205H355ZM368 205V203H371V200H373V205H368ZM355 192V187H360V189H357V192H355ZM371 192V189H368V187H373V192H371Z" fill="#386694"/>
<rect x="8" y="64" width="40" height="40" rx="20" fill="#002E4D"/>
<rect opacity="0.16" x="8" y="64" width="40" height="40" rx="20" fill="white"/>
<path d="M19 90V88H37V90H19ZM19 85V83H37V85H19ZM19 80V78H37V80H19Z" fill="white"/>
<rect x="64" y="64" width="40" height="40" rx="20" fill="#002E4D"/>
<rect opacity="0.16" x="64" y="64" width="40" height="40" rx="20" fill="white"/>
<path d="M78.4 91L77 89.6L82.6 84L77 78.4L78.4 77L84 82.6L89.6 77L91 78.4L85.4 84L91 89.6L89.6 91L84 85.4L78.4 91Z" fill="white"/>
<rect x="121" y="64" width="40" height="40" rx="20" fill="#002E4D"/>
<rect opacity="0.16" x="121" y="64" width="40" height="40" rx="20" fill="white"/>
<path d="M140 91V85H134V83H140V77H142V83H148V85H142V91H140Z" fill="white"/>
<rect x="176" y="64" width="40" height="40" rx="20" fill="#002E4D"/>
<rect opacity="0.16" x="176" y="64" width="40" height="40" rx="20" fill="white"/>
<path d="M189 85V83H203V85H189Z" fill="white"/>
<rect x="8" y="120" width="40" height="40" rx="20" fill="#002E4D"/>
<rect opacity="0.32" x="8" y="120" width="40" height="40" rx="20" fill="white"/>
<path d="M19 146V144H37V146H19ZM19 141V139H37V141H19ZM19 136V134H37V136H19Z" fill="white"/>
<rect x="64" y="120" width="40" height="40" rx="20" fill="#002E4D"/>
<rect opacity="0.32" x="64" y="120" width="40" height="40" rx="20" fill="white"/>
<path d="M78.4 147L77 145.6L82.6 140L77 134.4L78.4 133L84 138.6L89.6 133L91 134.4L85.4 140L91 145.6L89.6 147L84 141.4L78.4 147Z" fill="white"/>
<rect x="121" y="120" width="40" height="40" rx="20" fill="#002E4D"/>
<rect opacity="0.32" x="121" y="120" width="40" height="40" rx="20" fill="white"/>
<path d="M140 147V141H134V139H140V133H142V139H148V141H142V147H140Z" fill="white"/>
<rect x="176" y="120" width="40" height="40" rx="20" fill="#002E4D"/>
<rect opacity="0.32" x="176" y="120" width="40" height="40" rx="20" fill="white"/>
<path d="M189 141V139H203V141H189Z" fill="white"/>
<rect x="8" y="176" width="40" height="40" rx="20" fill="#0A3B61"/>
<path d="M19 202V200H37V202H19ZM19 197V195H37V197H19ZM19 192V190H37V192H19Z" fill="#386694"/>
<rect x="64" y="176" width="40" height="40" rx="20" fill="#0A3B61"/>
<path d="M78.4 203L77 201.6L82.6 196L77 190.4L78.4 189L84 194.6L89.6 189L91 190.4L85.4 196L91 201.6L89.6 203L84 197.4L78.4 203Z" fill="#386694"/>
<rect x="121" y="176" width="40" height="40" rx="20" fill="#0A3B61"/>
<path d="M140 203V197H134V195H140V189H142V195H148V197H142V203H140Z" fill="#386694"/>
<rect x="176" y="176" width="40" height="40" rx="20" fill="#0A3B61"/>
<path d="M189 197V195H203V197H189Z" fill="#386694"/>
<rect x="232" y="8" width="40" height="40" rx="20" fill="#002E4D"/>
<path d="M259.6 37L253.3 30.7C252.8 31.1 252.225 31.4167 251.575 31.65C250.925 31.8833 250.233 32 249.5 32C247.683 32 246.146 31.371 244.888 30.113C243.629 28.8543 243 27.3167 243 25.5C243 23.6833 243.629 22.1457 244.888 20.887C246.146 19.629 247.683 19 249.5 19C251.317 19 252.854 19.629 254.113 20.887C255.371 22.1457 256 23.6833 256 25.5C256 26.2333 255.883 26.925 255.65 27.575C255.417 28.225 255.1 28.8 254.7 29.3L261 35.6L259.6 37ZM249.5 30C250.75 30 251.813 29.5627 252.688 28.688C253.563 27.8127 254 26.75 254 25.5C254 24.25 253.563 23.1873 252.688 22.312C251.813 21.4373 250.75 21 249.5 21C248.25 21 247.187 21.4373 246.312 22.312C245.437 23.1873 245 24.25 245 25.5C245 26.75 245.437 27.8127 246.312 28.688C247.187 29.5627 248.25 30 249.5 30Z" fill="white"/>
<rect x="232" y="64" width="40" height="40" rx="20" fill="#002E4D"/>
<rect opacity="0.16" x="232" y="64" width="40" height="40" rx="20" fill="white"/>
<path d="M259.6 93L253.3 86.7C252.8 87.1 252.225 87.4167 251.575 87.65C250.925 87.8833 250.233 88 249.5 88C247.683 88 246.146 87.371 244.888 86.113C243.629 84.8543 243 83.3167 243 81.5C243 79.6833 243.629 78.1457 244.888 76.887C246.146 75.629 247.683 75 249.5 75C251.317 75 252.854 75.629 254.113 76.887C255.371 78.1457 256 79.6833 256 81.5C256 82.2333 255.883 82.925 255.65 83.575C255.417 84.225 255.1 84.8 254.7 85.3L261 91.6L259.6 93ZM249.5 86C250.75 86 251.813 85.5627 252.688 84.688C253.563 83.8127 254 82.75 254 81.5C254 80.25 253.563 79.1873 252.688 78.312C251.813 77.4373 250.75 77 249.5 77C248.25 77 247.187 77.4373 246.312 78.312C245.437 79.1873 245 80.25 245 81.5C245 82.75 245.437 83.8127 246.312 84.688C247.187 85.5627 248.25 86 249.5 86Z" fill="white"/>
<rect x="232" y="120" width="40" height="40" rx="20" fill="#002E4D"/>
<rect opacity="0.32" x="232" y="120" width="40" height="40" rx="20" fill="white"/>
<path d="M259.6 149L253.3 142.7C252.8 143.1 252.225 143.417 251.575 143.65C250.925 143.883 250.233 144 249.5 144C247.683 144 246.146 143.371 244.888 142.113C243.629 140.854 243 139.317 243 137.5C243 135.683 243.629 134.146 244.888 132.887C246.146 131.629 247.683 131 249.5 131C251.317 131 252.854 131.629 254.113 132.887C255.371 134.146 256 135.683 256 137.5C256 138.233 255.883 138.925 255.65 139.575C255.417 140.225 255.1 140.8 254.7 141.3L261 147.6L259.6 149ZM249.5 142C250.75 142 251.813 141.563 252.688 140.688C253.563 139.813 254 138.75 254 137.5C254 136.25 253.563 135.187 252.688 134.312C251.813 133.437 250.75 133 249.5 133C248.25 133 247.187 133.437 246.312 134.312C245.437 135.187 245 136.25 245 137.5C245 138.75 245.437 139.813 246.312 140.688C247.187 141.563 248.25 142 249.5 142Z" fill="white"/>
<rect x="232" y="176" width="40" height="40" rx="20" fill="#0A3B61"/>
<path d="M259.6 205L253.3 198.7C252.8 199.1 252.225 199.417 251.575 199.65C250.925 199.883 250.233 200 249.5 200C247.683 200 246.146 199.371 244.888 198.113C243.629 196.854 243 195.317 243 193.5C243 191.683 243.629 190.146 244.888 188.887C246.146 187.629 247.683 187 249.5 187C251.317 187 252.854 187.629 254.113 188.887C255.371 190.146 256 191.683 256 193.5C256 194.233 255.883 194.925 255.65 195.575C255.417 196.225 255.1 196.8 254.7 197.3L261 203.6L259.6 205ZM249.5 198C250.75 198 251.813 197.563 252.688 196.688C253.563 195.813 254 194.75 254 193.5C254 192.25 253.563 191.187 252.688 190.312C251.813 189.437 250.75 189 249.5 189C248.25 189 247.187 189.437 246.312 190.312C245.437 191.187 245 192.25 245 193.5C245 194.75 245.437 195.813 246.312 196.688C247.187 197.563 248.25 198 249.5 198Z" fill="#386694"/>
<path d="M260 22.666C259.634 22.666 259.32 22.5356 259.059 22.2747C258.798 22.0133 258.667 21.6993 258.667 21.3327V14.666C258.667 14.2993 258.798 13.9853 259.059 13.724C259.32 13.4631 259.634 13.3327 260 13.3327H260.667V11.9993C260.667 11.0771 260.992 10.2909 261.642 9.64068C262.292 8.9909 263.078 8.66602 264 8.66602C264.923 8.66602 265.709 8.9909 266.359 9.64068C267.009 10.2909 267.334 11.0771 267.334 11.9993V13.3327H268C268.367 13.3327 268.681 13.4631 268.942 13.724C269.203 13.9853 269.334 14.2993 269.334 14.666V21.3327C269.334 21.6993 269.203 22.0133 268.942 22.2747C268.681 22.5356 268.367 22.666 268 22.666H260ZM262 13.3327H266V11.9993C266 11.4438 265.806 10.9716 265.417 10.5827C265.028 10.1938 264.556 9.99935 264 9.99935C263.445 9.99935 262.973 10.1938 262.584 10.5827C262.195 10.9716 262 11.4438 262 11.9993V13.3327ZM264 19.3327C264.367 19.3327 264.681 19.2022 264.942 18.9413C265.203 18.68 265.334 18.366 265.334 17.9993C265.334 17.6327 265.203 17.3187 264.942 17.0573C264.681 16.7965 264.367 16.666 264 16.666C263.634 16.666 263.32 16.7965 263.059 17.0573C262.798 17.3187 262.667 17.6327 262.667 17.9993C262.667 18.366 262.798 18.68 263.059 18.9413C263.32 19.2022 263.634 19.3327 264 19.3327Z" fill="#21BFEF"/>
<path d="M260 78.666C259.634 78.666 259.32 78.5356 259.059 78.2747C258.798 78.0133 258.667 77.6993 258.667 77.3327V70.666C258.667 70.2993 258.798 69.9853 259.059 69.724C259.32 69.4631 259.634 69.3327 260 69.3327H260.667V67.9993C260.667 67.0771 260.992 66.2909 261.642 65.6407C262.292 64.9909 263.078 64.666 264 64.666C264.923 64.666 265.709 64.9909 266.359 65.6407C267.009 66.2909 267.334 67.0771 267.334 67.9993V69.3327H268C268.367 69.3327 268.681 69.4631 268.942 69.724C269.203 69.9853 269.334 70.2993 269.334 70.666V77.3327C269.334 77.6993 269.203 78.0133 268.942 78.2747C268.681 78.5356 268.367 78.666 268 78.666H260ZM262 69.3327H266V67.9993C266 67.4438 265.806 66.9716 265.417 66.5827C265.028 66.1938 264.556 65.9993 264 65.9993C263.445 65.9993 262.973 66.1938 262.584 66.5827C262.195 66.9716 262 67.4438 262 67.9993V69.3327ZM264 75.3327C264.367 75.3327 264.681 75.2022 264.942 74.9413C265.203 74.68 265.334 74.366 265.334 73.9993C265.334 73.6327 265.203 73.3187 264.942 73.0573C264.681 72.7965 264.367 72.666 264 72.666C263.634 72.666 263.32 72.7965 263.059 73.0573C262.798 73.3187 262.667 73.6327 262.667 73.9993C262.667 74.366 262.798 74.68 263.059 74.9413C263.32 75.2022 263.634 75.3327 264 75.3327Z" fill="#21BFEF"/>
<path d="M260 134.666C259.634 134.666 259.32 134.536 259.059 134.275C258.798 134.013 258.667 133.699 258.667 133.333V126.666C258.667 126.299 258.798 125.985 259.059 125.724C259.32 125.463 259.634 125.333 260 125.333H260.667V123.999C260.667 123.077 260.992 122.291 261.642 121.641C262.292 120.991 263.078 120.666 264 120.666C264.923 120.666 265.709 120.991 266.359 121.641C267.009 122.291 267.334 123.077 267.334 123.999V125.333H268C268.367 125.333 268.681 125.463 268.942 125.724C269.203 125.985 269.334 126.299 269.334 126.666V133.333C269.334 133.699 269.203 134.013 268.942 134.275C268.681 134.536 268.367 134.666 268 134.666H260ZM262 125.333H266V123.999C266 123.444 265.806 122.972 265.417 122.583C265.028 122.194 264.556 121.999 264 121.999C263.445 121.999 262.973 122.194 262.584 122.583C262.195 122.972 262 123.444 262 123.999V125.333ZM264 131.333C264.367 131.333 264.681 131.202 264.942 130.941C265.203 130.68 265.334 130.366 265.334 129.999C265.334 129.633 265.203 129.319 264.942 129.057C264.681 128.796 264.367 128.666 264 128.666C263.634 128.666 263.32 128.796 263.059 129.057C262.798 129.319 262.667 129.633 262.667 129.999C262.667 130.366 262.798 130.68 263.059 130.941C263.32 131.202 263.634 131.333 264 131.333Z" fill="#21BFEF"/>
<path d="M260 190.666C259.634 190.666 259.32 190.536 259.059 190.275C258.798 190.013 258.667 189.699 258.667 189.333V182.666C258.667 182.299 258.798 181.985 259.059 181.724C259.32 181.463 259.634 181.333 260 181.333H260.667V179.999C260.667 179.077 260.992 178.291 261.642 177.641C262.292 176.991 263.078 176.666 264 176.666C264.923 176.666 265.709 176.991 266.359 177.641C267.009 178.291 267.334 179.077 267.334 179.999V181.333H268C268.367 181.333 268.681 181.463 268.942 181.724C269.203 181.985 269.334 182.299 269.334 182.666V189.333C269.334 189.699 269.203 190.013 268.942 190.275C268.681 190.536 268.367 190.666 268 190.666H260ZM262 181.333H266V179.999C266 179.444 265.806 178.972 265.417 178.583C265.028 178.194 264.556 177.999 264 177.999C263.445 177.999 262.973 178.194 262.584 178.583C262.195 178.972 262 179.444 262 179.999V181.333ZM264 187.333C264.367 187.333 264.681 187.202 264.942 186.941C265.203 186.68 265.334 186.366 265.334 185.999C265.334 185.633 265.203 185.319 264.942 185.057C264.681 184.796 264.367 184.666 264 184.666C263.634 184.666 263.32 184.796 263.059 185.057C262.798 185.319 262.667 185.633 262.667 185.999C262.667 186.366 262.798 186.68 263.059 186.941C263.32 187.202 263.634 187.333 264 187.333Z" fill="#21BFEF"/>
<path d="M372 78.666C371.634 78.666 371.32 78.5356 371.059 78.2747C370.798 78.0133 370.667 77.6993 370.667 77.3327V70.666C370.667 70.2993 370.798 69.9853 371.059 69.724C371.32 69.4631 371.634 69.3327 372 69.3327H372.667V67.9993C372.667 67.0771 372.992 66.2909 373.642 65.6407C374.292 64.9909 375.078 64.666 376 64.666C376.923 64.666 377.709 64.9909 378.359 65.6407C379.009 66.2909 379.334 67.0771 379.334 67.9993V69.3327H380C380.367 69.3327 380.681 69.4631 380.942 69.724C381.203 69.9853 381.334 70.2993 381.334 70.666V77.3327C381.334 77.6993 381.203 78.0133 380.942 78.2747C380.681 78.5356 380.367 78.666 380 78.666H372ZM374 69.3327H378V67.9993C378 67.4438 377.806 66.9716 377.417 66.5827C377.028 66.1938 376.556 65.9993 376 65.9993C375.445 65.9993 374.973 66.1938 374.584 66.5827C374.195 66.9716 374 67.4438 374 67.9993V69.3327ZM376 75.3327C376.367 75.3327 376.681 75.2022 376.942 74.9413C377.203 74.68 377.334 74.366 377.334 73.9993C377.334 73.6327 377.203 73.3187 376.942 73.0573C376.681 72.7965 376.367 72.666 376 72.666C375.634 72.666 375.32 72.7965 375.059 73.0573C374.798 73.3187 374.667 73.6327 374.667 73.9993C374.667 74.366 374.798 74.68 375.059 74.9413C375.32 75.2022 375.634 75.3327 376 75.3327Z" fill="#21BFEF"/>
<path d="M371 134.666C370.634 134.666 370.32 134.536 370.059 134.275C369.798 134.013 369.667 133.699 369.667 133.333V126.666C369.667 126.299 369.798 125.985 370.059 125.724C370.32 125.463 370.634 125.333 371 125.333H371.667V123.999C371.667 123.077 371.992 122.291 372.642 121.641C373.292 120.991 374.078 120.666 375 120.666C375.923 120.666 376.709 120.991 377.359 121.641C378.009 122.291 378.334 123.077 378.334 123.999V125.333H379C379.367 125.333 379.681 125.463 379.942 125.724C380.203 125.985 380.334 126.299 380.334 126.666V133.333C380.334 133.699 380.203 134.013 379.942 134.275C379.681 134.536 379.367 134.666 379 134.666H371ZM373 125.333H377V123.999C377 123.444 376.806 122.972 376.417 122.583C376.028 122.194 375.556 121.999 375 121.999C374.445 121.999 373.973 122.194 373.584 122.583C373.195 122.972 373 123.444 373 123.999V125.333ZM375 131.333C375.367 131.333 375.681 131.202 375.942 130.941C376.203 130.68 376.334 130.366 376.334 129.999C376.334 129.633 376.203 129.319 375.942 129.057C375.681 128.796 375.367 128.666 375 128.666C374.634 128.666 374.32 128.796 374.059 129.057C373.798 129.319 373.667 129.633 373.667 129.999C373.667 130.366 373.798 130.68 374.059 130.941C374.32 131.202 374.634 131.333 375 131.333Z" fill="#21BFEF"/>
<path d="M372 190.666C371.634 190.666 371.32 190.536 371.059 190.275C370.798 190.013 370.667 189.699 370.667 189.333V182.666C370.667 182.299 370.798 181.985 371.059 181.724C371.32 181.463 371.634 181.333 372 181.333H372.667V179.999C372.667 179.077 372.992 178.291 373.642 177.641C374.292 176.991 375.078 176.666 376 176.666C376.923 176.666 377.709 176.991 378.359 177.641C379.009 178.291 379.334 179.077 379.334 179.999V181.333H380C380.367 181.333 380.681 181.463 380.942 181.724C381.203 181.985 381.334 182.299 381.334 182.666V189.333C381.334 189.699 381.203 190.013 380.942 190.275C380.681 190.536 380.367 190.666 380 190.666H372ZM374 181.333H378V179.999C378 179.444 377.806 178.972 377.417 178.583C377.028 178.194 376.556 177.999 376 177.999C375.445 177.999 374.973 178.194 374.584 178.583C374.195 178.972 374 179.444 374 179.999V181.333ZM376 187.333C376.367 187.333 376.681 187.202 376.942 186.941C377.203 186.68 377.334 186.366 377.334 185.999C377.334 185.633 377.203 185.319 376.942 185.057C376.681 184.796 376.367 184.666 376 184.666C375.634 184.666 375.32 184.796 375.059 185.057C374.798 185.319 374.667 185.633 374.667 185.999C374.667 186.366 374.798 186.68 375.059 186.941C375.32 187.202 375.634 187.333 376 187.333Z" fill="#21BFEF"/>
</svg>

<svg xmlns="http://www.w3.org/2000/svg" width="336" height="224" fill="none"><rect width="40" height="40" x="8" y="8" fill="#002E4D" rx="20"/><path fill="#fff" d="M19 34v-2h18v2zm0-5v-2h18v2zm0-5v-2h18v2z"/><rect width="40" height="40" x="64" y="8" fill="#002E4D" rx="20"/><path fill="#fff" d="M78.4 35 77 33.6l5.6-5.6-5.6-5.6 1.4-1.4 5.6 5.6 5.6-5.6 1.4 1.4-5.6 5.6 5.6 5.6-1.4 1.4-5.6-5.6z"/><rect width="40" height="40" x="121" y="8" fill="#002E4D" rx="20"/><path fill="#fff" d="M140 35v-6h-6v-2h6v-6h2v6h6v2h-6v6z"/><rect width="40" height="40" x="176" y="8" fill="#002E4D" rx="20"/><path fill="#fff" d="M189 29v-2h14v2z"/><rect width="40" height="40" x="288" y="8" fill="#002E4D" rx="20"/><path fill="#fff" d="M299 37v-5h2v3h3v2zm13 0v-2h3v-3h2v5zm-13-13v-5h5v2h-3v3zm16 0v-3h-3v-2h5v5z"/><rect width="40" height="40" x="288" y="64" fill="#002E4D" rx="20"/><rect width="40" height="40" x="288" y="64" fill="#fff" opacity=".16" rx="20"/><path fill="#fff" d="M299 93v-5h2v3h3v2zm13 0v-2h3v-3h2v5zm-13-13v-5h5v2h-3v3zm16 0v-3h-3v-2h5v5z"/><rect width="40" height="40" x="288" y="120" fill="#002E4D" rx="20"/><rect width="40" height="40" x="288" y="120" fill="#fff" opacity=".32" rx="20"/><path fill="#fff" d="M299 149v-5h2v3h3v2zm13 0v-2h3v-3h2v5zm-13-13v-5h5v2h-3v3zm16 0v-3h-3v-2h5v5z"/><rect width="40" height="40" x="288" y="176" fill="#0A3B61" rx="20"/><path fill="#386694" d="M299 205v-5h2v3h3v2zm13 0v-2h3v-3h2v5zm-13-13v-5h5v2h-3v3zm16 0v-3h-3v-2h5v5z"/><rect width="40" height="40" x="8" y="64" fill="#002E4D" rx="20"/><rect width="40" height="40" x="8" y="64" fill="#fff" opacity=".16" rx="20"/><path fill="#fff" d="M19 90v-2h18v2zm0-5v-2h18v2zm0-5v-2h18v2z"/><rect width="40" height="40" x="64" y="64" fill="#002E4D" rx="20"/><rect width="40" height="40" x="64" y="64" fill="#fff" opacity=".16" rx="20"/><path fill="#fff" d="M78.4 91 77 89.6l5.6-5.6-5.6-5.6 1.4-1.4 5.6 5.6 5.6-5.6 1.4 1.4-5.6 5.6 5.6 5.6-1.4 1.4-5.6-5.6z"/><rect width="40" height="40" x="121" y="64" fill="#002E4D" rx="20"/><rect width="40" height="40" x="121" y="64" fill="#fff" opacity=".16" rx="20"/><path fill="#fff" d="M140 91v-6h-6v-2h6v-6h2v6h6v2h-6v6z"/><rect width="40" height="40" x="176" y="64" fill="#002E4D" rx="20"/><rect width="40" height="40" x="176" y="64" fill="#fff" opacity=".16" rx="20"/><path fill="#fff" d="M189 85v-2h14v2z"/><rect width="40" height="40" x="8" y="120" fill="#002E4D" rx="20"/><rect width="40" height="40" x="8" y="120" fill="#fff" opacity=".32" rx="20"/><path fill="#fff" d="M19 146v-2h18v2zm0-5v-2h18v2zm0-5v-2h18v2z"/><rect width="40" height="40" x="64" y="120" fill="#002E4D" rx="20"/><rect width="40" height="40" x="64" y="120" fill="#fff" opacity=".32" rx="20"/><path fill="#fff" d="m78.4 147-1.4-1.4 5.6-5.6-5.6-5.6 1.4-1.4 5.6 5.6 5.6-5.6 1.4 1.4-5.6 5.6 5.6 5.6-1.4 1.4-5.6-5.6z"/><rect width="40" height="40" x="121" y="120" fill="#002E4D" rx="20"/><rect width="40" height="40" x="121" y="120" fill="#fff" opacity=".32" rx="20"/><path fill="#fff" d="M140 147v-6h-6v-2h6v-6h2v6h6v2h-6v6z"/><rect width="40" height="40" x="176" y="120" fill="#002E4D" rx="20"/><rect width="40" height="40" x="176" y="120" fill="#fff" opacity=".32" rx="20"/><path fill="#fff" d="M189 141v-2h14v2z"/><rect width="40" height="40" x="8" y="176" fill="#0A3B61" rx="20"/><path fill="#386694" d="M19 202v-2h18v2zm0-5v-2h18v2zm0-5v-2h18v2z"/><rect width="40" height="40" x="64" y="176" fill="#0A3B61" rx="20"/><path fill="#386694" d="m78.4 203-1.4-1.4 5.6-5.6-5.6-5.6 1.4-1.4 5.6 5.6 5.6-5.6 1.4 1.4-5.6 5.6 5.6 5.6-1.4 1.4-5.6-5.6z"/><rect width="40" height="40" x="121" y="176" fill="#0A3B61" rx="20"/><path fill="#386694" d="M140 203v-6h-6v-2h6v-6h2v6h6v2h-6v6z"/><rect width="40" height="40" x="176" y="176" fill="#0A3B61" rx="20"/><path fill="#386694" d="M189 197v-2h14v2z"/><rect width="40" height="40" x="232" y="8" fill="#002E4D" rx="20"/><path fill="#fff" d="m259.6 37-6.3-6.3q-.75.6-1.725.95T249.5 32q-2.725 0-4.612-1.887T243 25.5q0-2.725 1.888-4.613Q246.775 19 249.5 19t4.613 1.887T256 25.5a6.1 6.1 0 0 1-1.3 3.8l6.3 6.3zm-10.1-7q1.875 0 3.188-1.312Q254 27.375 254 25.5t-1.312-3.188T249.5 21t-3.188 1.312Q245 23.625 245 25.5t1.312 3.188T249.5 30"/><rect width="40" height="40" x="232" y="64" fill="#002E4D" rx="20"/><rect width="40" height="40" x="232" y="64" fill="#fff" opacity=".16" rx="20"/><path fill="#fff" d="m259.6 93-6.3-6.3q-.75.6-1.725.95T249.5 88q-2.725 0-4.612-1.887T243 81.5q0-2.725 1.888-4.613Q246.775 75 249.5 75t4.613 1.887Q256 78.775 256 81.5a6.1 6.1 0 0 1-1.3 3.8l6.3 6.3zm-10.1-7q1.875 0 3.188-1.312Q254 83.375 254 81.5t-1.312-3.188Q251.375 77 249.5 77t-3.188 1.312Q245 79.625 245 81.5t1.312 3.188Q247.625 86 249.5 86"/><rect width="40" height="40" x="232" y="120" fill="#002E4D" rx="20"/><rect width="40" height="40" x="232" y="120" fill="#fff" opacity=".32" rx="20"/><path fill="#fff" d="m259.6 149-6.3-6.3q-.75.6-1.725.95t-2.075.35q-2.725 0-4.612-1.887T243 137.5q0-2.725 1.888-4.613Q246.775 131 249.5 131t4.613 1.887Q256 134.775 256 137.5a6.1 6.1 0 0 1-1.3 3.8l6.3 6.3zm-10.1-7q1.875 0 3.188-1.312Q254 139.375 254 137.5t-1.312-3.188T249.5 133t-3.188 1.312Q245 135.625 245 137.5t1.312 3.188T249.5 142"/><rect width="40" height="40" x="232" y="176" fill="#0A3B61" rx="20"/><path fill="#386694" d="m259.6 205-6.3-6.3q-.75.6-1.725.95t-2.075.35q-2.725 0-4.612-1.887T243 193.5q0-2.725 1.888-4.613Q246.775 187 249.5 187t4.613 1.887Q256 190.775 256 193.5a6.1 6.1 0 0 1-1.3 3.8l6.3 6.3zm-10.1-7q1.875 0 3.188-1.312Q254 195.375 254 193.5t-1.312-3.188T249.5 189t-3.188 1.312Q245 191.625 245 193.5t1.312 3.188T249.5 198"/></svg>
